X:23
%%pagewidth 8.5in
%%vocalfont Baskerville10Pro 12
%%staffscale 1.0
%%score 1 2
T: Of all the birds
M: 6/8
L: 1/8
K: G
V:1 clef-treble
V:2 clef-bass octave=-1
V:1
B|B2B B2B & G6|B>cd e2e & G3 G3| d2d d>cB & G3 F2G|[Ec]2[FA] [GB]2B|
w: Of all the birds that e-ver I see. The owl~is the fair-est in her de-gree: For
V:2
z|[Gd]6|[Gd]3 [Cc]3|[GB]3 [DA]2[EG]|A3 G2z & C2D G,2x|
V:1
B>BB B2B & G6|B>cd e2e & G3 G3|d2d d2B & G3 F2G|[Ec]2[FA] G2B|d2B d2B|
w:all the day long she sits in a tree, And when the night comes, away flies she: Te whit te whoo! to
V:2
[Gd]6|[Gd]3 [Cc]3|[GB]3 [DA]2[EG]|A3 B2z & C2D G2x|z3 z2 G|
V:1
d2B d2B & G6|[Gd]3 [Gce]3|[GBd]3-[GBd]2B|B>BB B2B & G6|B>cd e2e & G3 G3|
w: whom drinkst thou? Sir Knave, to you.* This song is well sung I make you a vow, And
V:2
B2G B2G|B3 c3|G3-G2z|[Gd]6|[Gd]3 [Cc]3|
V:1
d>dd d2B & G3 F2G|[Ec]2[FA] G3|[GB]3 [Gd]3|B>cd e2e & G3 G3| d2d d2B & G3 F2G|
w: he is a knave that drink-eth now: Nose, nose, jol-ly red nose! And who gave thee that
V:2
[GB]3 [DA]2[EG]|A3 B3 & C2D G3|G3 B3|G>AB c3 & G3 C3|[GB]3 [DA]2[EG]|
V:1
[Ec]2[FA] [GB]3|BBB d2B & G3 G3|B>cd e2e & =F3 E3|d2d d2B & G3 F2G|c>BA G2 & E2F x2||
w: jolly red nose? Cin-na-mon, gin-ger, nut-megs and cloves, And that gave me my jol-ly red nose.
V:2
A3 G3 & C2D G,3|G3 B2G|G>AB c3 & G3 C3|[DB]3 [DA]2[EG]|[CA]2[DA] [GB]2||

